TH1/E1.svg

<svg xmlns="http://www.w3.org/2000/svg" viewBox="0 0 1200 800" preserveAspectRatio="none" width="1200" height="800">
 <path d="M0,0H1200V800H0Z" style="fill: white;"></path>
 <g>
  <g transform="translate(120,80)">
   <path d="M0,0H960V640H0Z" style="fill: white; stroke: black; stroke-width: 1;"></path>
   <svg x="0" y="0" overflow="hidden" width="960" height="640" viewBox="0 0 960 640">
    <g>
     <path d="M19,636v6m0,-3h10m0,-3v6M21,638h6m-3,0v2m-3,0h6M67,635v6m0,-3h10m0,-3v6M69,637h6m-3,0v2m-3,0h6M77,634v6m0,-3h10m0,-3v6M79,636h6m-3,0v3m-3,0h6M86,634v6m0,-3h10m0,-3v6M88,636h6m-3,0v3m-3,0h6M96,632v6m0,-3h10m0,-3v6M98,633h6m-3,0v4m-3,0h6M106,634v6m0,-3h10m0,-3v6M108,635h6m-3,0v3m-3,0h6M115,629v6m0,-3h10m0,-3v6M117,630h6m-3,0v5m-3,0h6M125,627v6m0,-3h10m0,-3v6M127,628h6m-3,0v5m-3,0h6M134,627v6m0,-3h10m0,-3v6M136,627h6m-3,0v5m-3,0h6M144,621v6m0,-3h10m0,-3v6M146,621h6m-3,0v7m-3,0h6M154,622v6m0,-3h10m0,-3v6M156,622h6m-3,0v6m-3,0h6M163,614v6m0,-3h10m0,-3v6M165,614h6m-3,0v7m-3,0h6M173,610v6m0,-3h10m0,-3v6M175,609h6m-3,0v9m-3,0h6M182,599v6m0,-3h10m0,-3v6M184,597h6m-3,0v10m-3,0h6M192,604v6m0,-3h10m0,-3v6M194,602h6m-3,0v10m-3,0h6M202,590v6m0,-3h10m0,-3v6M204,587h6m-3,0v12m-3,0h6M211,596v6m0,-3h10m0,-3v6M213,594h6m-3,0v10m-3,0h6M221,579v6m0,-3h10m0,-3v6M223,576h6m-3,0v12m-3,0h6M230,558v6m0,-3h10m0,-3v6M232,554h6m-3,0v15m-3,0h6M240,558v6m0,-3h10m0,-3v6M242,553h6m-3,0v15m-3,0h6M250,554v6m0,-3h10m0,-3v6M252,550h6m-3,0v15m-3,0h6M259,520v6m0,-3h10m0,-3v6M261,514h6m-3,0v17m-3,0h6M269,514v6m0,-3h10m0,-3v6M271,508h6m-3,0v18m-3,0h6M278,503v6m0,-3h10m0,-3v6M280,497h6m-3,0v19m-3,0h6M288,487v6m0,-3h10m0,-3v6M290,480h6m-3,0v21m-3,0h6M298,442v6m0,-3h10m0,-3v6M300,433h6m-3,0v23m-3,0h6M307,439v6m0,-3h10m0,-3v6M309,430h6m-3,0v24m-3,0h6M317,414v6m0,-3h10m0,-3v6M319,405h6m-3,0v25m-3,0h6M326,403v6m0,-3h10m0,-3v6M328,393h6m-3,0v25m-3,0h6M336,367v6m0,-3h10m0,-3v6M338,357h6m-3,0v27m-3,0h6M346,354v6m0,-3h10m0,-3v6M348,343h6m-3,0v27m-3,0h6M355,304v6m0,-3h10m0,-3v6M357,292h6m-3,0v30m-3,0h6M365,271v6m0,-3h10m0,-3v6M367,258h6m-3,0v32m-3,0h6M374,270v6m0,-3h10m0,-3v6M376,257h6m-3,0v32m-3,0h6M384,233v6m0,-3h10m0,-3v6M386,219h6m-3,0v33m-3,0h6M394,207v6m0,-3h10m0,-3v6M396,193h6m-3,0v34m-3,0h6M403,140v6m0,-3h10m0,-3v6M405,124h6m-3,0v37m-3,0h6M413,170v6m0,-3h10m0,-3v6M415,156h6m-3,0v35m-3,0h6M422,119v6m0,-3h10m0,-3v6M424,103h6m-3,0v37m-3,0h6M432,162v6m0,-3h10m0,-3v6M434,147h6m-3,0v36m-3,0h6M442,111v6m0,-3h10m0,-3v6M444,95h6m-3,0v38m-3,0h6M451,84v6m0,-3h10m0,-3v6M453,68h6m-3,0v39m-3,0h6M461,101v6m0,-3h10m0,-3v6M463,85h6m-3,0v38m-3,0h6M470,125v6m0,-3h10m0,-3v6M472,109h6m-3,0v37m-3,0h6M480,90v6m0,-3h10m0,-3v6M482,74h6m-3,0v38m-3,0h6M490,48v6m0,-3h10m0,-3v6M492,30h6m-3,0v41m-3,0h6M499,117v6m0,-3h10m0,-3v6M501,101h6m-3,0v38m-3,0h6M509,120v6m0,-3h10m0,-3v6M511,104h6m-3,0v38m-3,0h6M518,132v6m0,-3h10m0,-3v6M520,116h6m-3,0v37m-3,0h6M528,135v6m0,-3h10m0,-3v6M530,119h6m-3,0v37m-3,0h6M538,183v6m0,-3h10m0,-3v6M540,168h6m-3,0v35m-3,0h6M547,199v6m0,-3h10m0,-3v6M549,185h6m-3,0v34m-3,0h6M557,211v6m0,-3h10m0,-3v6M559,197h6m-3,0v34m-3,0h6M566,235v6m0,-3h10m0,-3v6M568,221h6m-3,0v33m-3,0h6M576,250v6m0,-3h10m0,-3v6M578,236h6m-3,0v33m-3,0h6M586,259v6m0,-3h10m0,-3v6M588,246h6m-3,0v32m-3,0h6M595,294v6m0,-3h10m0,-3v6M597,282h6m-3,0v30m-3,0h6M605,336v6m0,-3h10m0,-3v6M607,325h6m-3,0v29m-3,0h6M614,349v6m0,-3h10m0,-3v6M616,338h6m-3,0v28m-3,0h6M624,369v6m0,-3h10m0,-3v6M626,359h6m-3,0v27m-3,0h6M634,430v6m0,-3h10m0,-3v6M636,421h6m-3,0v24m-3,0h6M643,424v6m0,-3h10m0,-3v6M645,415h6m-3,0v24m-3,0h6M653,452v6m0,-3h10m0,-3v6M655,444h6m-3,0v22m-3,0h6M662,476v6m0,-3h10m0,-3v6M664,468h6m-3,0v21m-3,0h6M672,490v6m0,-3h10m0,-3v6M674,483h6m-3,0v20m-3,0h6M682,511v6m0,-3h10m0,-3v6M684,505h6m-3,0v19m-3,0h6M691,529v6m0,-3h10m0,-3v6M693,523h6m-3,0v18m-3,0h6M701,551v6m0,-3h10m0,-3v6M703,546h6m-3,0v16m-3,0h6M710,550v6m0,-3h10m0,-3v6M712,545h6m-3,0v15m-3,0h6M720,571v6m0,-3h10m0,-3v6M722,567h6m-3,0v13m-3,0h6M730,576v6m0,-3h10m0,-3v6M732,573h6m-3,0v13m-3,0h6M739,591v6m0,-3h10m0,-3v6M741,589h6m-3,0v11m-3,0h6M749,594v6m0,-3h10m0,-3v6M751,592h6m-3,0v10m-3,0h6M758,606v6m0,-3h10m0,-3v6M760,604h6m-3,0v9m-3,0h6M768,613v6m0,-3h10m0,-3v6M770,612h6m-3,0v8m-3,0h6M778,605v6m0,-3h10m0,-3v6M780,603h6m-3,0v10m-3,0h6M787,617v6m0,-3h10m0,-3v6M789,616h6m-3,0v7m-3,0h6M797,621v6m0,-3h10m0,-3v6M799,621h6m-3,0v7m-3,0h6M806,625v6m0,-3h10m0,-3v6M808,626h6m-3,0v5m-3,0h6M816,625v6m0,-3h10m0,-3v6M818,626h6m-3,0v5m-3,0h6M826,629v6m0,-3h10m0,-3v6M828,629h6m-3,0v5m-3,0h6M835,628v6m0,-3h10m0,-3v6M837,629h6m-3,0v5m-3,0h6M845,635v6m0,-3h10m0,-3v6M847,637h6m-3,0v2m-3,0h6M854,632v6m0,-3h10m0,-3v6M856,633h6m-3,0v3m-3,0h6M864,633v6m0,-3h10m0,-3v6M866,634h6m-3,0v4m-3,0h6M874,636v6m0,-3h10m0,-3v6M876,638h6m-3,0v2m-3,0h6M883,636v6m0,-3h10m0,-3v6M885,638h6m-3,0v2m-3,0h6M893,636v6m0,-3h10m0,-3v6M895,638h6m-3,0v2m-3,0h6M950,636v6m0,-3h10m0,-3v6M952,639h6m-3,0v1m-3,0h6" style="stroke: #00009a; stroke-width: 1;"></path>
    </g>
   </svg>
   <g>
    <g transform="translate(0,640)">
     <path d="M0,0h960M0,-24v24m24,-12v12m24,-12v12m24,-12v12m24,-12v12m24,-24v24m24,-12v12m24,-12v12m24,-12v12m24,-12v12m24,-24v24m24,-12v12m24,-12v12m24,-12v12m24,-12v12m24,-24v24m24,-12v12m24,-12v12m24,-12v12m24,-12v12m24,-24v24m24,-12v12m24,-12v12m24,-12v12m24,-12v12m24,-24v24m24,-12v12m24,-12v12m24,-12v12m24,-12v12m24,-24v24m24,-12v12m24,-12v12m24,-12v12m24,-12v12m24,-24v24m24,-12v12m24,-12v12m24,-12v12m24,-12v12m24,-24v24" style="stroke: black; stroke-width: 1;"></path>
     <g font-family="Arial" font-size="28" space="preserve" fill="black" text-anchor="middle">
      <text dy=".8em" transform="translate(0,6)">
       -4
      </text>
      <text dy=".8em" transform="translate(120,6)">
       -3
      </text>
      <text dy=".8em" transform="translate(240,6)">
       -2
      </text>
      <text dy=".8em" transform="translate(360,6)">
       -1
      </text>
      <text dy=".8em" transform="translate(480,6)">
       0
      </text>
      <text dy=".8em" transform="translate(600,6)">
       1
      </text>
      <text dy=".8em" transform="translate(720,6)">
       2
      </text>
      <text dy=".8em" transform="translate(840,6)">
       3
      </text>
      <text dy=".8em" transform="translate(960,6)">
       4
      </text>
     </g>
    </g>
    <g>
     <path d="M0,0v640M36,640h-36m18,-14h-18m18,-13h-18m18,-14h-18m18,-14h-18m36,-13h-36m18,-14h-18m18,-14h-18m18,-13h-18m18,-14h-18m36,-14h-36m18,-13h-18m18,-14h-18m18,-14h-18m18,-13h-18m36,-14h-36m18,-14h-18m18,-13h-18m18,-14h-18m18,-14h-18m36,-13h-36m18,-14h-18m18,-14h-18m18,-13h-18m18,-14h-18m36,-14h-36m18,-13h-18m18,-14h-18m18,-13h-18m18,-14h-18m36,-14h-36m18,-13h-18m18,-14h-18m18,-14h-18m18,-13h-18m36,-14h-36m18,-14h-18m18,-13h-18m18,-14h-18m18,-14h-18m36,-13h-36m18,-14h-18m18,-14h-18m18,-13h-18m18,-14h-18m36,-14h-36m18,-13h-18" style="stroke: black; stroke-width: 1;"></path>
     <g font-family="Arial" font-size="28" space="preserve" fill="black" text-anchor="end">
      <text dy=".4em" transform="translate(-4,640)">
       0
      </text>
      <text dy=".4em" transform="translate(-4,572)">
       100
      </text>
      <text dy=".4em" transform="translate(-4,503)">
       200
      </text>
      <text dy=".4em" transform="translate(-4,435)">
       300
      </text>
      <text dy=".4em" transform="translate(-4,367)">
       400
      </text>
      <text dy=".4em" transform="translate(-4,298)">
       500
      </text>
      <text dy=".4em" transform="translate(-4,230)">
       600
      </text>
      <text dy=".4em" transform="translate(-4,162)">
       700
      </text>
      <text dy=".4em" transform="translate(-4,94)">
       800
      </text>
      <text dy=".4em" transform="translate(-4,25)">
       900
      </text>
     </g>
    </g>
   </g>
  </g>
  <g transform="translate(120,4)" font-family="Arial" font-size="40" space="preserve">
   <text fill="black" text-anchor="middle" dy=".8em" transform="translate(480)">
    This is the px distribution
   </text>
  </g>
  <g transform="translate(936,52)" font-family="Arial" font-size="25" space="preserve" fill="black">
   <path d="M0,0H240V128H0Z" style="fill: white; stroke: black; stroke-width: 1;"></path>
   <text text-anchor="middle" dy=".4em" transform="translate(120,16)">
    hpx
   </text>
   <text text-anchor="start" dy=".4em" transform="translate(12,48)">
    Entries
   </text>
   <text text-anchor="end" dy=".4em" transform="translate(228,48)">
    25000
   </text>
   <text text-anchor="start" dy=".4em" transform="translate(12,80)">
    Mean
   </text>
   <text text-anchor="end" dy=".4em" transform="translate(228,80)">
    0.003163
   </text>
   <text text-anchor="start" dy=".4em" transform="translate(12,112)">
    Std Dev
   </text>
   <text text-anchor="end" dy=".4em" transform="translate(228,112)">
    1.004
   </text>
   <path d="M0,32h240" style="stroke: black; stroke-width: 1;"></path>
  </g>
 </g>
</svg>

<svg xmlns="http://www.w3.org/2000/svg" viewBox="0 0 1200 800" preserveAspectRatio="none" width="1200" height="800">
 <path d="M0,0H1200V800H0Z" style="fill: white;"></path>
 <g>
  <g transform="translate(120,80)">
   <path d="M0,0H960V640H0Z" style="fill: white; stroke: black; stroke-width: 1;"></path>
   <svg x="0" y="0" overflow="hidden" width="960" height="640" viewBox="0 0 960 640">
    <g>
     <path d="M19,636v6m0,-3h10m0,-3v6M21,638h6m-3,0v2m-3,0h6M67,635v6m0,-3h10m0,-3v6M69,637h6m-3,0v2m-3,0h6M77,634v6m0,-3h10m0,-3v6M79,636h6m-3,0v3m-3,0h6M86,634v6m0,-3h10m0,-3v6M88,636h6m-3,0v3m-3,0h6M96,632v6m0,-3h10m0,-3v6M98,633h6m-3,0v4m-3,0h6M106,634v6m0,-3h10m0,-3v6M108,635h6m-3,0v3m-3,0h6M115,629v6m0,-3h10m0,-3v6M117,630h6m-3,0v5m-3,0h6M125,627v6m0,-3h10m0,-3v6M127,628h6m-3,0v5m-3,0h6M134,627v6m0,-3h10m0,-3v6M136,627h6m-3,0v5m-3,0h6M144,621v6m0,-3h10m0,-3v6M146,621h6m-3,0v7m-3,0h6M154,622v6m0,-3h10m0,-3v6M156,622h6m-3,0v6m-3,0h6M163,614v6m0,-3h10m0,-3v6M165,614h6m-3,0v7m-3,0h6M173,610v6m0,-3h10m0,-3v6M175,609h6m-3,0v9m-3,0h6M182,599v6m0,-3h10m0,-3v6M184,597h6m-3,0v10m-3,0h6M192,604v6m0,-3h10m0,-3v6M194,602h6m-3,0v10m-3,0h6M202,590v6m0,-3h10m0,-3v6M204,587h6m-3,0v12m-3,0h6M211,596v6m0,-3h10m0,-3v6M213,594h6m-3,0v10m-3,0h6M221,579v6m0,-3h10m0,-3v6M223,576h6m-3,0v12m-3,0h6M230,558v6m0,-3h10m0,-3v6M232,554h6m-3,0v15m-3,0h6M240,558v6m0,-3h10m0,-3v6M242,553h6m-3,0v15m-3,0h6M250,554v6m0,-3h10m0,-3v6M252,550h6m-3,0v15m-3,0h6M259,520v6m0,-3h10m0,-3v6M261,514h6m-3,0v17m-3,0h6M269,514v6m0,-3h10m0,-3v6M271,508h6m-3,0v18m-3,0h6M278,503v6m0,-3h10m0,-3v6M280,497h6m-3,0v19m-3,0h6M288,487v6m0,-3h10m0,-3v6M290,480h6m-3,0v21m-3,0h6M298,442v6m0,-3h10m0,-3v6M300,433h6m-3,0v23m-3,0h6M307,439v6m0,-3h10m0,-3v6M309,430h6m-3,0v24m-3,0h6M317,414v6m0,-3h10m0,-3v6M319,405h6m-3,0v25m-3,0h6M326,403v6m0,-3h10m0,-3v6M328,393h6m-3,0v25m-3,0h6M336,367v6m0,-3h10m0,-3v6M338,357h6m-3,0v27m-3,0h6M346,354v6m0,-3h10m0,-3v6M348,343h6m-3,0v27m-3,0h6M355,304v6m0,-3h10m0,-3v6M357,292h6m-3,0v30m-3,0h6M365,271v6m0,-3h10m0,-3v6M367,258h6m-3,0v32m-3,0h6M374,270v6m0,-3h10m0,-3v6M376,257h6m-3,0v32m-3,0h6M384,233v6m0,-3h10m0,-3v6M386,219h6m-3,0v33m-3,0h6M394,207v6m0,-3h10m0,-3v6M396,193h6m-3,0v34m-3,0h6M403,140v6m0,-3h10m0,-3v6M405,124h6m-3,0v37m-3,0h6M413,170v6m0,-3h10m0,-3v6M415,156h6m-3,0v35m-3,0h6M422,119v6m0,-3h10m0,-3v6M424,103h6m-3,0v37m-3,0h6M432,162v6m0,-3h10m0,-3v6M434,147h6m-3,0v36m-3,0h6M442,111v6m0,-3h10m0,-3v6M444,95h6m-3,0v38m-3,0h6M451,84v6m0,-3h10m0,-3v6M453,68h6m-3,0v39m-3,0h6M461,101v6m0,-3h10m0,-3v6M463,85h6m-3,0v38m-3,0h6M470,125v6m0,-3h10m0,-3v6M472,109h6m-3,0v37m-3,0h6M480,90v6m0,-3h10m0,-3v6M482,74h6m-3,0v38m-3,0h6M490,48v6m0,-3h10m0,-3v6M492,30h6m-3,0v41m-3,0h6M499,117v6m0,-3h10m0,-3v6M501,101h6m-3,0v38m-3,0h6M509,120v6m0,-3h10m0,-3v6M511,104h6m-3,0v38m-3,0h6M518,132v6m0,-3h10m0,-3v6M520,116h6m-3,0v37m-3,0h6M528,135v6m0,-3h10m0,-3v6M530,119h6m-3,0v37m-3,0h6M538,183v6m0,-3h10m0,-3v6M540,168h6m-3,0v35m-3,0h6M547,199v6m0,-3h10m0,-3v6M549,185h6m-3,0v34m-3,0h6M557,211v6m0,-3h10m0,-3v6M559,197h6m-3,0v34m-3,0h6M566,235v6m0,-3h10m0,-3v6M568,221h6m-3,0v33m-3,0h6M576,250v6m0,-3h10m0,-3v6M578,236h6m-3,0v33m-3,0h6M586,259v6m0,-3h10m0,-3v6M588,246h6m-3,0v32m-3,0h6M595,294v6m0,-3h10m0,-3v6M597,282h6m-3,0v30m-3,0h6M605,336v6m0,-3h10m0,-3v6M607,325h6m-3,0v29m-3,0h6M614,349v6m0,-3h10m0,-3v6M616,338h6m-3,0v28m-3,0h6M624,369v6m0,-3h10m0,-3v6M626,359h6m-3,0v27m-3,0h6M634,430v6m0,-3h10m0,-3v6M636,421h6m-3,0v24m-3,0h6M643,424v6m0,-3h10m0,-3v6M645,415h6m-3,0v24m-3,0h6M653,452v6m0,-3h10m0,-3v6M655,444h6m-3,0v22m-3,0h6M662,476v6m0,-3h10m0,-3v6M664,468h6m-3,0v21m-3,0h6M672,490v6m0,-3h10m0,-3v6M674,483h6m-3,0v20m-3,0h6M682,511v6m0,-3h10m0,-3v6M684,505h6m-3,0v19m-3,0h6M691,529v6m0,-3h10m0,-3v6M693,523h6m-3,0v18m-3,0h6M701,551v6m0,-3h10m0,-3v6M703,546h6m-3,0v16m-3,0h6M710,550v6m0,-3h10m0,-3v6M712,545h6m-3,0v15m-3,0h6M720,571v6m0,-3h10m0,-3v6M722,567h6m-3,0v13m-3,0h6M730,576v6m0,-3h10m0,-3v6M732,573h6m-3,0v13m-3,0h6M739,591v6m0,-3h10m0,-3v6M741,589h6m-3,0v11m-3,0h6M749,594v6m0,-3h10m0,-3v6M751,592h6m-3,0v10m-3,0h6M758,606v6m0,-3h10m0,-3v6M760,604h6m-3,0v9m-3,0h6M768,613v6m0,-3h10m0,-3v6M770,612h6m-3,0v8m-3,0h6M778,605v6m0,-3h10m0,-3v6M780,603h6m-3,0v10m-3,0h6M787,617v6m0,-3h10m0,-3v6M789,616h6m-3,0v7m-3,0h6M797,621v6m0,-3h10m0,-3v6M799,621h6m-3,0v7m-3,0h6M806,625v6m0,-3h10m0,-3v6M808,626h6m-3,0v5m-3,0h6M816,625v6m0,-3h10m0,-3v6M818,626h6m-3,0v5m-3,0h6M826,629v6m0,-3h10m0,-3v6M828,629h6m-3,0v5m-3,0h6M835,628v6m0,-3h10m0,-3v6M837,629h6m-3,0v5m-3,0h6M845,635v6m0,-3h10m0,-3v6M847,637h6m-3,0v2m-3,0h6M854,632v6m0,-3h10m0,-3v6M856,633h6m-3,0v3m-3,0h6M864,633v6m0,-3h10m0,-3v6M866,634h6m-3,0v4m-3,0h6M874,636v6m0,-3h10m0,-3v6M876,638h6m-3,0v2m-3,0h6M883,636v6m0,-3h10m0,-3v6M885,638h6m-3,0v2m-3,0h6M893,636v6m0,-3h10m0,-3v6M895,638h6m-3,0v2m-3,0h6M950,636v6m0,-3h10m0,-3v6M952,639h6m-3,0v1m-3,0h6" style="stroke: #00009a; stroke-width: 1;"></path>
    </g>
   </svg>
   <g>
    <g transform="translate(0,640)">
     <path d="M0,0h960M0,-24V0M24,-12V0M48,-12V0M72,-12V0M96,-12V0M120,-24V0M144,-12V0M168,-12V0M192,-12V0M216,-12V0M240,-24V0M264,-12V0M288,-12V0M312,-12V0M336,-12V0M360,-24V0M384,-12V0M408,-12V0M432,-12V0M456,-12V0M480,-24V0M504,-12V0M528,-12V0M552,-12V0M576,-12V0M600,-24V0M624,-12V0M648,-12V0M672,-12V0M696,-12V0M720,-24V0M744,-12V0M768,-12V0M792,-12V0M816,-12V0M840,-24V0M864,-12V0M888,-12V0M912,-12V0M936,-12V0M960,-24V0" style="stroke: black; stroke-width: 1;"></path>
     <g font-family="Arial" font-size="28" space="preserve" fill="black" text-anchor="middle">
      <text dy=".8em" transform="translate(0,6)">
       -4
      </text>
      <text dy=".8em" transform="translate(120,6)">
       -3
      </text>
      <text dy=".8em" transform="translate(240,6)">
       -2
      </text>
      <text dy=".8em" transform="translate(360,6)">
       -1
      </text>
      <text dy=".8em" transform="translate(480,6)">
       0
      </text>
      <text dy=".8em" transform="translate(600,6)">
       1
      </text>
      <text dy=".8em" transform="translate(720,6)">
       2
      </text>
      <text dy=".8em" transform="translate(840,6)">
       3
      </text>
      <text dy=".8em" transform="translate(960,6)">
       4
      </text>
     </g>
    </g>
    <g>
     <path d="M0,0v640M36,640H0M18,626H0M18,613H0M18,599H0M18,585H0M36,572H0M18,558H0M18,544H0M18,531H0M18,517H0M36,503H0M18,490H0M18,476H0M18,462H0M18,449H0M36,435H0M18,421H0M18,408H0M18,394H0M18,380H0M36,367H0M18,353H0M18,339H0M18,326H0M18,312H0M36,298H0M18,285H0M18,271H0M18,258H0M18,244H0M36,230H0M18,217H0M18,203H0M18,189H0M18,176H0M36,162H0M18,148H0M18,135H0M18,121H0M18,107H0M36,94H0M18,80H0M18,66H0M18,53H0M18,39H0M36,25H0M18,12H0" style="stroke: black; stroke-width: 1;"></path>
     <g font-family="Arial" font-size="28" space="preserve" fill="black" text-anchor="end">
      <text dy=".4em" transform="translate(-4,640)">
       0
      </text>
      <text dy=".4em" transform="translate(-4,572)">
       100
      </text>
      <text dy=".4em" transform="translate(-4,503)">
       200
      </text>
      <text dy=".4em" transform="translate(-4,435)">
       300
      </text>
      <text dy=".4em" transform="translate(-4,367)">
       400
      </text>
      <text dy=".4em" transform="translate(-4,298)">
       500
      </text>
      <text dy=".4em" transform="translate(-4,230)">
       600
      </text>
      <text dy=".4em" transform="translate(-4,162)">
       700
      </text>
      <text dy=".4em" transform="translate(-4,94)">
       800
      </text>
      <text dy=".4em" transform="translate(-4,25)">
       900
      </text>
     </g>
    </g>
   </g>
  </g>
  <g transform="translate(120,4)" font-family="Arial" font-size="40" space="preserve">
   <text fill="black" text-anchor="middle" dy=".8em" transform="translate(480)">
    This is the px distribution
   </text>
  </g>
  <g transform="translate(936,52)" font-family="Arial" font-size="25" space="preserve" fill="black">
   <path d="M0,0H240V128H0Z" style="fill: white; stroke: black; stroke-width: 1;"></path>
   <text text-anchor="middle" dy=".4em" transform="translate(120,16)">
    hpx
   </text>
   <text text-anchor="start" dy=".4em" transform="translate(12,48)">
    Entries
   </text>
   <text text-anchor="end" dy=".4em" transform="translate(228,48)">
    25000
   </text>
   <text text-anchor="start" dy=".4em" transform="translate(12,80)">
    Mean
   </text>
   <text text-anchor="end" dy=".4em" transform="translate(228,80)">
    0.003163
   </text>
   <text text-anchor="start" dy=".4em" transform="translate(12,112)">
    Std Dev
   </text>
   <text text-anchor="end" dy=".4em" transform="translate(228,112)">
    1.004
   </text>
   <path d="M0,32h240" style="stroke: black; stroke-width: 1;"></path>
  </g>
 </g>
</svg>
